Yaru++/mimetypes/16/application-vnd.openofficeorg.extension.svg

<svg height="16" width="16" xmlns="http://www.w3.org/2000/svg" xmlns:xlink="http://www.w3.org/1999/xlink"><linearGradient id="a" gradientUnits="userSpaceOnUse" x1="8.00056" x2="8.00056" y1="1" y2="15"><stop offset="0" stop-color="#fff"/><stop offset=".125" stop-color="#fff" stop-opacity=".098039"/><stop offset=".92500001" stop-color="#fff" stop-opacity=".098039"/><stop offset="1" stop-color="#fff" stop-opacity=".498039"/></linearGradient><linearGradient id="b" gradientTransform="matrix(0 -.03089488 .03003587 0 -1.636752 15.63636)" gradientUnits="userSpaceOnUse" x1="441.37933" x2="52.9655" y1="240.30263" y2="401.439"><stop offset="0" stop-color="#f2f2f2"/><stop offset="1" stop-color="#f9f9f9"/></linearGradient><linearGradient id="c" gradientTransform="matrix(0 -.0386186 .03904659 0 -4.527942 17.54546)" gradientUnits="userSpaceOnUse" x1="441.37927" x2="52.965412" y1="240.30267" y2="401.42969"><stop offset="0" stop-color="#333"/><stop offset="1" stop-color="#666"/></linearGradient><path d="m5.0962579.9999998c-.71904 0-1.30185.0139-1.83593.10352-.5340901.0897-1.0683001.27628-1.4765701.68359-.40826.4073-.59657.94323-.68554 1.47851-.089.53529-.10119007 1.12048-.0977 1.8418v2.8925802 3.89844c-.003.71816.009 1.30235.0977 1.83594.089.53528.27727 1.07121.68554 1.47851.40827.40731.94248.59394 1.4765701.68359.53408.0897 1.11689.10352 1.83593.10352h5.8086001c.71904 0 1.30058-.0137 1.83398-.10352.53341-.0898 1.06768-.27792 1.47461-.68554s.59404-.94271.68359-1.47656c.08956-.53386.10352-1.11551.10352-1.83594v-3.89844-3.0000002l-4-4z" opacity=".1"/><path d="m4.8550579.50000983c-3.0416601 0-3.3689401.30898997-3.3540301 3.32330997v4.1766902 4.17668c-.0149 3.01433.31237 3.32332 3.3540301 3.32332h6.2914601c3.04167 0 3.35404-.30895 3.35404-3.32332v-4.17668-4.2857202l-3.25-3.21427997z" fill="url(#c)"/><path d="m5.5809479 1.9999998c-2.5803901 0-2.5803901 0-2.5800301 2.65865v3.3413502 3.34134c-.00036 2.65866-.00036 2.65866 2.5800301 2.65866h4.8395901c2.58002 0 2.58003 0 2.58003-2.65866v-3.34134l-.00001-4.0000002-2-2z" fill="url(#b)"/><path d="m5.0962579-.00000017c-.71904 0-1.30185.0139-1.83593.10352-.5340901.0897-1.0683001.27628-1.4765701.68359-.40826.40729997-.59657.94323997-.68554 1.47850997-.089.5353-.10115007 1.12048-.0977 1.8418v3.8925802 3.89844c-.003.71816.009 1.30235.0977 1.83594.089.53528.27727 1.07121.68554 1.47851.40827.40731.94248.59394 1.4765701.68359.53408.0897 1.11689.10352 1.83593.10352h5.8086001c.71904 0 1.30058-.0137 1.83398-.10352.53341-.0898 1.06768-.27792 1.47461-.68554s.59404-.94271.68359-1.47656c.08956-.53386.10352-1.11551.10352-1.83594v-3.89844-4.4140602l-3.58594-3.58593997zm0 .99999997h5.9043001l3 3v4.0000002 3.89844c0 2.81341-.288 3.10156-3.0957 3.10156h-5.8086001c-2.8076901 0-3.1095001-.28819-3.0957001-3.10156v-3.89844-3.8984402c-.01376-2.81337.28801-3.10156 3.0957001-3.10156z" opacity=".4"/><path d="m5.0962579.9999998c-2.8076901 0-3.1094601.28819-3.0957001 3.10156v3.8984402 3.89844c-.0138 2.81337.28801 3.10156 3.0957001 3.10156h5.8086001c2.8077 0 3.0957-.28815 3.0957-3.10156v-3.89844-4.0000002l-3-3zm0 1h5.9043001l2 2v4.0000002 3.89844c0 .68627-.022 1.19438-.0742 1.50586-.0522.31147-.11279.37642-.1289.39258-.0161.0161-.0803.0767-.39063.1289-.31036.05222-.81716.07422-1.50197.07422h-5.8086001c-.6848 0-1.19211-.0238-1.5039-.0762-.3118-.0523-.37803-.1105-.39453-.12695-.0165-.0165-.0754-.0806-.1269601-.39063-.0515-.31005-.0737-.81855-.0703-1.50391v-.002-3.90031-3.9003902-.002c-.003-.68537.0188-1.19386.0703-1.50391s.1104501-.37416.1269601-.39063c.0165-.0165.0827-.0746.39453-.12695.31179-.0523.8191-.0762 1.5039-.0762z" fill="url(#a)" opacity=".4"/><path d="m14.000558 4.9999998v-1l-3-3h-1v1.53057.0587.0315c0 2.06981.27707 2.38897 2.35163 2.37882z" opacity=".6"/><path d="m14.000558 3.9996198-3-2.99962v1.11269.0485.026c0 1.70759.0787 1.82093 1.79021 1.81256z" fill="#888"/><g fill="#46a926" fill-rule="evenodd" stroke-linejoin="round"><path d="m5.0005579 6.9999998v1.6562502c0 .56245.33377.0937.72266.0937.41281-.00001.77534.33328.77734.74609.00001.002.00001.002 0 .004 0 .41421-.36313.75-.77734.75-.38889 0-.72266-.46875-.72266.0937v1.65626h1.65625c.56245 0 .0937-.33377.0937-.72266-.00001-.41281.33328-.77534.74609-.77734.002-.00001.002-.00001.004 0 .41421 0 .75.36313.75.77734 0 .38889-.46875.72266.0937.72266h1.6562601v-5.0000002z" stroke-linecap="square" stroke-width=".75"/><g stroke-linecap="round" stroke-width=".749998"><path d="m7.4969279 5.5000098c-.41281.002-.74644.36496-.74643.77777 0 .38889.46875.72222-.0937.72222h.89062.0469.75c-.5625 0-.0937-.33333-.0937-.72222 0-.41421-.33579-.77777-.75-.77777-.002-.00001-.002-.00001-.004 0z"/><path d="m11.500548 9.49637c-.002-.41281-.36496-.74644-.77777-.74643-.38889 0-.72222.46875-.72222-.0937v.89062.0469.75c0-.5625.33333-.0937.72222-.0937.41421 0 .77777-.33579.77777-.75.00001-.002.00001-.002 0-.004z"/></g></g></svg>

<?xml version="1.0" encoding="UTF-8" standalone="no"?>
<svg
   xmlns:dc="http://purl.org/dc/elements/1.1/"
   xmlns:cc="http://creativecommons.org/ns#"
   xmlns:rdf="http://www.w3.org/1999/02/22-rdf-syntax-ns#"
   xmlns:svg="http://www.w3.org/2000/svg"
   xmlns="http://www.w3.org/2000/svg"
   xmlns:xlink="http://www.w3.org/1999/xlink"
   xmlns:sodipodi="http://sodipodi.sourceforge.net/DTD/sodipodi-0.dtd"
   xmlns:inkscape="http://www.inkscape.org/namespaces/inkscape"
   height="16"
   width="16"
   version="1.1"
   id="svg31"
   sodipodi:docname="1E64_notepad.0.svg"
   inkscape:version="0.92.5 (2060ec1f9f, 2020-04-08)">
  <metadata
     id="metadata37">
    <rdf:RDF>
      <cc:Work
         rdf:about="">
        <dc:format>image/svg+xml</dc:format>
        <dc:type
           rdf:resource="http://purl.org/dc/dcmitype/StillImage" />
        <dc:title></dc:title>
      </cc:Work>
    </rdf:RDF>
  </metadata>
  <defs
     id="defs35">
    <linearGradient
       gradientTransform="translate(-319.99944,-236)"
       inkscape:collect="always"
       xlink:href="#linearGradient927"
       id="linearGradient993"
       x1="328"
       y1="237"
       x2="328"
       y2="251"
       gradientUnits="userSpaceOnUse" />
    <linearGradient
       inkscape:collect="always"
       id="linearGradient927">
      <stop
         style="stop-color:#ffffff;stop-opacity:1;"
         offset="0"
         id="stop923" />
      <stop
         id="stop933"
         offset="0.125"
         style="stop-color:#ffffff;stop-opacity:0.09803922" />
      <stop
         id="stop931"
         offset="0.92500001"
         style="stop-color:#ffffff;stop-opacity:0.09803922" />
      <stop
         style="stop-color:#ffffff;stop-opacity:0.49803922"
         offset="1"
         id="stop925" />
    </linearGradient>
    <linearGradient
       inkscape:collect="always"
       xlink:href="#linearGradient4338"
       id="linearGradient920-7"
       gradientUnits="userSpaceOnUse"
       gradientTransform="matrix(0,-0.03089488,0.03003587,0,-1.6367521,15.63636)"
       x1="441.37933"
       y1="240.30263"
       x2="52.9655"
       y2="401.439" />
    <linearGradient
       inkscape:collect="always"
       id="linearGradient4338">
      <stop
         style="stop-color:#f2f2f2;stop-opacity:1"
         offset="0"
         id="stop4340" />
      <stop
         style="stop-color:#f9f9f9;stop-opacity:1"
         offset="1"
         id="stop4342" />
    </linearGradient>
    <linearGradient
       inkscape:collect="always"
       xlink:href="#linearGradient16945"
       id="linearGradient920"
       gradientUnits="userSpaceOnUse"
       gradientTransform="matrix(0,-0.0386186,0.03904659,0,-4.5279421,17.54546)"
       x1="441.37927"
       y1="240.30267"
       x2="52.965412"
       y2="401.42969" />
    <linearGradient
       id="linearGradient16945">
      <stop
         offset="0"
         style="stop-color:#333333;stop-opacity:1"
         id="stop16941" />
      <stop
         offset="1"
         style="stop-color:#666666;stop-opacity:1"
         id="stop16943" />
    </linearGradient>
  </defs>
  <sodipodi:namedview
     pagecolor="#ffffff"
     bordercolor="#666666"
     borderopacity="1"
     objecttolerance="10"
     gridtolerance="10"
     guidetolerance="10"
     inkscape:pageopacity="0"
     inkscape:pageshadow="2"
     inkscape:window-width="834"
     inkscape:window-height="480"
     id="namedview33"
     showgrid="false"
     inkscape:zoom="14.75"
     inkscape:cx="8"
     inkscape:cy="8"
     inkscape:window-x="0"
     inkscape:window-y="28"
     inkscape:window-maximized="0"
     inkscape:current-layer="svg31" />
  <linearGradient
     id="a"
     gradientUnits="userSpaceOnUse"
     x1="328"
     x2="328"
     y1="237"
     y2="251">
    <stop
       offset="0"
       stop-color="#fff"
       id="stop2" />
    <stop
       offset=".125"
       stop-color="#fff"
       stop-opacity=".098039"
       id="stop4" />
    <stop
       offset=".92500001"
       stop-color="#fff"
       stop-opacity=".098039"
       id="stop6" />
    <stop
       offset="1"
       stop-color="#fff"
       stop-opacity=".498039"
       id="stop8" />
  </linearGradient>
  <clipPath
     id="b">
    <path
       d="m325.09646 237c-2.80769 0-3.10979.28839-3.09603 3.10176v3.89824 3.89824c-.0138 2.81337.28834 3.10176 3.09603 3.10176h5.8075c2.8077 0 3.09604-.28835 3.09604-3.10176v-3.89824-3.89824c0-2.8134-.28835-3.10176-3.09604-3.10176z"
       id="path11" />
  </clipPath>
  <linearGradient
     id="c"
     gradientTransform="matrix(0 -.0386186 .03904659 0 -4.527942 17.545406)"
     gradientUnits="userSpaceOnUse"
     x1="441.37933"
     x2="52.9655"
     y1="240.28154"
     y2="401.42957">
    <stop
       offset="0"
       stop-color="#fee581"
       id="stop14" />
    <stop
       offset="1"
       stop-color="#fff4c9"
       id="stop16" />
  </linearGradient>
  <path
     style="color:#000000;font-style:normal;font-variant:normal;font-weight:normal;font-stretch:normal;font-size:medium;line-height:normal;font-family:sans-serif;font-variant-ligatures:normal;font-variant-position:normal;font-variant-caps:normal;font-variant-numeric:normal;font-variant-alternates:normal;font-feature-settings:normal;text-indent:0;text-align:start;text-decoration:none;text-decoration-line:none;text-decoration-style:solid;text-decoration-color:#000000;letter-spacing:normal;word-spacing:normal;text-transform:none;writing-mode:lr-tb;direction:ltr;text-orientation:mixed;dominant-baseline:auto;baseline-shift:baseline;text-anchor:start;white-space:normal;shape-padding:0;clip-rule:nonzero;display:inline;overflow:visible;visibility:visible;opacity:0.1;isolation:auto;mix-blend-mode:normal;color-interpolation:sRGB;color-interpolation-filters:linearRGB;solid-color:#000000;solid-opacity:1;vector-effect:none;fill:#000000;fill-opacity:1;fill-rule:nonzero;stroke:none;stroke-width:2;stroke-linecap:butt;stroke-linejoin:miter;stroke-miterlimit:4;stroke-dasharray:none;stroke-dashoffset:0;stroke-opacity:1;marker:none;color-rendering:auto;image-rendering:auto;shape-rendering:auto;text-rendering:auto;enable-background:accumulate"
     d="m 5.0962579,0.9999998 c -0.71904,0 -1.30185,0.0139 -1.83593,0.10352 -0.5340901,0.0897 -1.0683001,0.27628 -1.4765701,0.68359 -0.40826,0.4073 -0.59657,0.94323 -0.68554,1.47851 -0.089,0.53529 -0.10119007,1.12048 -0.0977,1.8418 V 8 11.89844 c -0.003,0.71816 0.009,1.30235 0.0977,1.83594 0.089,0.53528 0.27727,1.07121 0.68554,1.47851 0.40827,0.40731 0.94248,0.59394 1.4765701,0.68359 0.53408,0.0897 1.11689,0.10352 1.83593,0.10352 h 5.8086001 c 0.71904,0 1.30058,-0.0137 1.83398,-0.10352 0.53341,-0.0898 1.06768,-0.27792 1.47461,-0.68554 0.40693,-0.40762 0.59404,-0.94271 0.68359,-1.47656 0.08956,-0.53386 0.10352,-1.11551 0.10352,-1.83594 V 8 4.9999998 l -4,-4 z"
     id="path997"
     inkscape:connector-curvature="0"
     sodipodi:nodetypes="scscccccccsscscscccs" />
  <path
     style="color:#000000;display:inline;overflow:visible;visibility:visible;fill:url(#linearGradient920);fill-opacity:1;fill-rule:nonzero;stroke:none;stroke-width:1;marker:none;enable-background:accumulate"
     d="m 4.8550579,0.50000983 c -3.0416601,0 -3.3689401,0.30898997 -3.3540301,3.32330997 V 8.00001 12.17669 c -0.0149,3.01433 0.31237,3.32332 3.3540301,3.32332 h 6.2914601 c 3.04167,0 3.35404,-0.30895 3.35404,-3.32332 V 8.00001 3.7142898 l -3.25,-3.21427997 z"
     id="path918"
     inkscape:connector-curvature="0"
     sodipodi:nodetypes="scccssscccs" />
  <path
     style="color:#000000;display:inline;overflow:visible;visibility:visible;fill:url(#linearGradient920-7);fill-opacity:1;fill-rule:nonzero;stroke:none;stroke-width:1;marker:none;enable-background:accumulate"
     d="m 5.5809479,1.9999998 c -2.5803901,0 -2.5803901,0 -2.5800301,2.65865 V 8 11.34134 C 3.0005578,14 3.0005578,14 5.5809479,14 h 4.8395901 c 2.58002,0 2.58003,0 2.58003,-2.65866 V 8 l -10e-6,-4.0000002 -2,-2 z"
     id="path918-8"
     inkscape:connector-curvature="0"
     sodipodi:nodetypes="scccssscccs" />
  <path
     style="color:#000000;font-style:normal;font-variant:normal;font-weight:normal;font-stretch:normal;font-size:medium;line-height:normal;font-family:sans-serif;font-variant-ligatures:normal;font-variant-position:normal;font-variant-caps:normal;font-variant-numeric:normal;font-variant-alternates:normal;font-feature-settings:normal;text-indent:0;text-align:start;text-decoration:none;text-decoration-line:none;text-decoration-style:solid;text-decoration-color:#000000;letter-spacing:normal;word-spacing:normal;text-transform:none;writing-mode:lr-tb;direction:ltr;text-orientation:mixed;dominant-baseline:auto;baseline-shift:baseline;text-anchor:start;white-space:normal;shape-padding:0;clip-rule:nonzero;display:inline;overflow:visible;visibility:visible;opacity:0.4;isolation:auto;mix-blend-mode:normal;color-interpolation:sRGB;color-interpolation-filters:linearRGB;solid-color:#000000;solid-opacity:1;vector-effect:none;fill:#000000;fill-opacity:1;fill-rule:nonzero;stroke:none;stroke-width:2;stroke-linecap:butt;stroke-linejoin:miter;stroke-miterlimit:4;stroke-dasharray:none;stroke-dashoffset:0;stroke-opacity:1;marker:none;color-rendering:auto;image-rendering:auto;shape-rendering:auto;text-rendering:auto;enable-background:accumulate"
     d="m 5.0962579,-1.7e-7 c -0.71904,0 -1.30185,0.0139 -1.83593,0.10352 -0.5340901,0.0897 -1.0683001,0.27628 -1.4765701,0.68359 -0.40826,0.40729997 -0.59657,0.94323997 -0.68554,1.47850997 -0.089,0.5353 -0.10115007,1.12048 -0.0977,1.8418 V 8 11.89844 c -0.003,0.71816 0.009,1.30235 0.0977,1.83594 0.089,0.53528 0.27727,1.07121 0.68554,1.47851 0.40827,0.40731 0.94248,0.59394 1.4765701,0.68359 0.53408,0.0897 1.11689,0.10352 1.83593,0.10352 h 5.8086001 c 0.71904,0 1.30058,-0.0137 1.83398,-0.10352 0.53341,-0.0898 1.06768,-0.27792 1.47461,-0.68554 0.40693,-0.40762 0.59404,-0.94271 0.68359,-1.47656 0.08956,-0.53386 0.10352,-1.11551 0.10352,-1.83594 V 8 3.5859398 L 11.414618,-1.7e-7 Z m 0,0.99999997 h 5.9043001 l 3,3 V 8 11.89844 c 0,2.81341 -0.288,3.10156 -3.0957,3.10156 H 5.0962579 C 2.2885678,15 1.9867578,14.71181 2.0005578,11.89844 V 8 4.1015598 c -0.01376,-2.81337 0.28801,-3.10156 3.0957001,-3.10156 z"
     id="path928"
     inkscape:connector-curvature="0"
     sodipodi:nodetypes="scscccccccsscscscccsscccssscccs" />
  <path
     style="color:#000000;font-style:normal;font-variant:normal;font-weight:normal;font-stretch:normal;font-size:medium;line-height:normal;font-family:sans-serif;font-variant-ligatures:normal;font-variant-position:normal;font-variant-caps:normal;font-variant-numeric:normal;font-variant-alternates:normal;font-feature-settings:normal;text-indent:0;text-align:start;text-decoration:none;text-decoration-line:none;text-decoration-style:solid;text-decoration-color:#000000;letter-spacing:normal;word-spacing:normal;text-transform:none;writing-mode:lr-tb;direction:ltr;text-orientation:mixed;dominant-baseline:auto;baseline-shift:baseline;text-anchor:start;white-space:normal;shape-padding:0;clip-rule:nonzero;display:inline;overflow:visible;visibility:visible;opacity:0.4;isolation:auto;mix-blend-mode:normal;color-interpolation:sRGB;color-interpolation-filters:linearRGB;solid-color:#000000;solid-opacity:1;vector-effect:none;fill:url(#linearGradient993);fill-opacity:1;fill-rule:nonzero;stroke:none;stroke-width:2;stroke-linecap:butt;stroke-linejoin:miter;stroke-miterlimit:4;stroke-dasharray:none;stroke-dashoffset:0;stroke-opacity:1;marker:none;color-rendering:auto;image-rendering:auto;shape-rendering:auto;text-rendering:auto;enable-background:accumulate"
     clip-path="none"
     d="m 5.0962579,0.9999998 c -2.8076901,0 -3.1094601,0.28819 -3.0957001,3.10156 V 8 11.89844 C 1.9867578,14.71181 2.2885678,15 5.0962579,15 h 5.8086001 c 2.8077,0 3.0957,-0.28815 3.0957,-3.10156 V 8 3.9999998 l -3,-3 z m 0,1 h 5.9043001 l 2,2 V 8 11.89844 c 0,0.68627 -0.022,1.19438 -0.0742,1.50586 -0.0522,0.31147 -0.11279,0.37642 -0.1289,0.39258 -0.0161,0.0161 -0.0803,0.0767 -0.39063,0.1289 C 12.096468,13.978 11.589668,14 10.904858,14 H 5.0962579 c -0.6848,0 -1.19211,-0.0238 -1.5039,-0.0762 -0.3118,-0.0523 -0.37803,-0.1105 -0.39453,-0.12695 -0.0165,-0.0165 -0.0754,-0.0806 -0.1269601,-0.39063 -0.0515,-0.31005 -0.0737,-0.81855 -0.0703,-1.50391 V 11.90031 8 4.0996098 v -0.002 c -0.003,-0.68537 0.0188,-1.19386 0.0703,-1.50391 0.0515,-0.31005 0.1104501,-0.37416 0.1269601,-0.39063 0.0165,-0.0165 0.0827,-0.0746 0.39453,-0.12695 0.31179,-0.0523 0.8191,-0.0762 1.5039,-0.0762 z"
     id="path937"
     inkscape:connector-curvature="0"
     sodipodi:nodetypes="scccssscccsscccscccssccccccccsccs" />
  <path
     inkscape:connector-curvature="0"
     style="color:#000000;display:inline;overflow:visible;visibility:visible;opacity:0.6;fill:#000000;fill-opacity:1;fill-rule:nonzero;stroke:none;stroke-width:0.25002289;marker:none;enable-background:accumulate"
     d="m 14.000558,4.9999998 v -1 l -3,-3 h -1 v 1.53057 0.0587 0.0315 c 0,2.06981 0.27707,2.38897 2.35163,2.37882 z"
     id="rect4158-0-3-62-2-3-7-3"
     sodipodi:nodetypes="ccccccscc" />
  <path
     inkscape:connector-curvature="0"
     style="color:#000000;display:inline;overflow:visible;visibility:visible;fill:#888888;fill-opacity:1;fill-rule:nonzero;stroke:none;stroke-width:0.25002289;marker:none;enable-background:accumulate"
     d="m 14.000558,3.9996198 -3,-2.99962 v 1.11269 0.0485 0.026 c 0,1.70759 0.0787,1.82093 1.79021,1.81256 z"
     id="rect4158-0-3-62-6-5-5"
     sodipodi:nodetypes="ccccscc" />
  <path
     inkscape:connector-curvature="0"
     id="rect1105"
     style="display:inline;fill:#46a926;fill-opacity:1;fill-rule:evenodd;stroke-width:0.75;stroke-linecap:square;stroke-linejoin:round;enable-background:new"
     d="M 5.0005579,6.9999998 V 8.65625 c 0,0.56245 0.33377,0.0937 0.72266,0.0937 0.41281,-10e-6 0.77534,0.33328 0.77734,0.74609 1e-5,0.002 1e-5,0.002 0,0.004 0,0.41421 -0.36313,0.75 -0.77734,0.75 -0.38889,0 -0.72266,-0.46875 -0.72266,0.0937 V 12 h 1.65625 c 0.56245,0 0.0937,-0.33377 0.0937,-0.72266 -10e-6,-0.41281 0.33328,-0.77534 0.74609,-0.77734 0.002,-10e-6 0.002,-10e-6 0.004,0 0.41421,0 0.75,0.36313 0.75,0.77734 0,0.38889 -0.46875,0.72266 0.0937,0.72266 H 10.000558 V 6.9999998 Z" />
  <path
     inkscape:connector-curvature="0"
     id="path925-5"
     style="display:inline;opacity:1;fill:#46a926;fill-opacity:1;fill-rule:evenodd;stroke-width:0.74999797;stroke-linecap:round;stroke-linejoin:round;enable-background:new"
     d="m 7.4969279,5.5000098 c -0.41281,0.002 -0.74644,0.36496 -0.74643,0.77777 0,0.38889 0.46875,0.72222 -0.0937,0.72222 h 0.89062 0.0469 0.75 c -0.5625,0 -0.0937,-0.33333 -0.0937,-0.72222 0,-0.41421 -0.33579,-0.77777 -0.75,-0.77777 -0.002,-10e-6 -0.002,-10e-6 -0.004,0 z" />
  <path
     inkscape:connector-curvature="0"
     id="path1124"
     style="display:inline;opacity:1;fill:#46a926;fill-opacity:1;fill-rule:evenodd;stroke-width:0.74999797;stroke-linecap:round;stroke-linejoin:round;enable-background:new"
     d="m 11.500548,9.49637 c -0.002,-0.41281 -0.36496,-0.74644 -0.77777,-0.74643 -0.38889,0 -0.72222,0.46875 -0.72222,-0.0937 v 0.89062 0.0469 0.75 c 0,-0.5625 0.33333,-0.0937 0.72222,-0.0937 0.41421,0 0.77777,-0.33579 0.77777,-0.75 10e-6,-0.002 10e-6,-0.002 0,-0.004 z" />
</svg>
